assets/icons/custom/settings_safari.svg

<svg viewBox="0 0 40 40" xmlns="http://www.w3.org/2000/svg">
    <path d="M20.0052 23.6906C20.3464 23.6906 20.6358 23.3993 20.6358 23.0432V11.4209L20.5945 9.85611L21.5146 10.8489L23.2723 12.759C23.386 12.8885 23.5514 12.9532 23.7065 12.9532C24.027 12.9532 24.2855 12.705 24.2855 12.3705C24.2855 12.1871 24.2131 12.0576 24.0994 11.9281L20.4601 8.21583C20.305 8.05396 20.1706 8 20.0052 8C19.8397 8 19.7053 8.05396 19.5503 8.21583L15.911 11.9281C15.7869 12.0576 15.7145 12.1871 15.7145 12.3705C15.7145 12.705 15.9627 12.9532 16.2935 12.9532C16.4486 12.9532 16.6244 12.8885 16.7381 12.759L18.4957 10.8489L19.4159 9.85611L19.3745 11.4209V23.0432C19.3745 23.3993 19.664 23.6906 20.0052 23.6906ZM14.05 32H25.95C27.9661 32 29 30.9209 29 28.8489V17.8201C29 15.7374 27.9661 14.6583 25.95 14.6583H23.0034V15.9964H25.919C27.0666 15.9964 27.718 16.6439 27.718 17.8849V28.7734C27.718 30.0252 27.0666 30.6619 25.919 30.6619H14.0706C12.9127 30.6619 12.282 30.0252 12.282 28.7734V17.8849C12.282 16.6439 12.9127 15.9964 14.0706 15.9964H17.0069V14.6583H14.05C12.0339 14.6583 11 15.7266 11 17.8201V28.8489C11 30.9317 12.0339 32 14.05 32Z" fill="#2E7CF6"/>
</svg>

<svg viewBox="0 0 40 40" xmlns="http://www.w3.org/2000/svg"><path d="M20 23.7c.3 0 .6-.3.6-.7V10l1 1 1.7 1.9.4.2c.3 0 .6-.3.6-.6 0-.2 0-.3-.2-.5l-3.6-3.7L20 8c-.2 0-.3 0-.4.2L15.9 12l-.2.5c0 .3.3.6.6.6l.4-.2 1.8-2 1-1-.1 1.6V23c0 .4.3.7.6.7ZM14 32h12c2 0 3-1 3-3.2v-11c0-2-1-3.1-3-3.1h-3V16h3c1 0 1.7.6 1.7 1.9v10.9c0 1.2-.6 1.9-1.8 1.9H14.1c-1.2 0-1.8-.7-1.8-2V18c0-1.3.6-1.9 1.8-1.9h3v-1.3h-3c-2 0-3.1 1-3.1 3.1v11c0 2.1 1 3.2 3 3.2Z" fill="#2E7CF6"/></svg>
